svgs/thin/tugrik-sign.svg

<svg xmlns="http://www.w3.org/2000/svg" viewBox="0 0 384 512"><!--! Font Awesome Pro 6.0.0-alpha3 by @fontawesome - https://fontawesome.com License - https://fontawesome.com/license (Commercial License) --><path d="M384 40c0 4.422-3.578 8-8 8h-176v165.8l118.1-29.52c4.344-1.312 8.625 1.531 9.688 5.812c1.094 4.281-1.531 8.625-5.812 9.688L200 230.2v79.53l118.1-29.52c4.344-1.344 8.625 1.531 9.688 5.812c1.094 4.281-1.531 8.625-5.812 9.688L200 326.2V472c0 4.422-3.578 8-8 8s-8-3.578-8-8v-141.8l-118.1 29.52C65.28 359.9 64.63 360 64 360c-3.594 0-6.844-2.438-7.75-6.062c-1.094-4.281 1.531-8.625 5.812-9.688L184 313.8V234.2L65.94 263.8C65.28 263.9 64.63 264 64 264c-3.594 0-6.844-2.438-7.75-6.062C55.16 253.7 57.78 249.3 62.06 248.3L184 217.8V48h-176C3.578 48 0 44.42 0 40S3.578 32 8 32h368C380.4 32 384 35.58 384 40z"/></svg>

<svg xmlns="http://www.w3.org/2000/svg" viewBox="0 0 384 512"><!--! Font Awesome Pro 6.0.0 by @fontawesome - https://fontawesome.com License - https://fontawesome.com/license (Commercial License) Copyright 2022 Fonticons, Inc. --><path d="M376 32C380.4 32 384 35.58 384 40C384 44.42 380.4 48 376 48H200V213.8L318.1 184.2C322.3 183.2 326.7 185.8 327.8 190.1C328.8 194.3 326.2 198.7 321.9 199.8L200 230.2V309.8L318.1 280.2C322.3 279.2 326.7 281.8 327.8 286.1C328.8 290.3 326.2 294.7 321.9 295.8L200 326.2V472C200 476.4 196.4 480 192 480C187.6 480 184 476.4 184 472V330.2L65.94 359.8C61.65 360.8 57.31 358.2 56.24 353.9C55.17 349.7 57.77 345.3 62.06 344.2L184 313.8V234.2L65.94 263.8C61.65 264.8 57.31 262.2 56.24 257.9C55.17 253.7 57.77 249.3 62.06 248.2L184 217.8V48H8C3.582 48 0 44.42 0 40C0 35.58 3.582 32 8 32H376z"/></svg>
